svg/color/botto.svg

<?xml version="1.0" encoding="UTF-8" ?>
<!DOCTYPE svg PUBLIC "-//W3C//DTD SVG 1.1//EN" "http://www.w3.org/Graphics/SVG/1.1/DTD/svg11.dtd">
<svg width="250pt" height="250pt" viewBox="0 0 250 250" version="1.1" xmlns="http://www.w3.org/2000/svg">
<g id="#1c1c1cff">
<path fill="#1c1c1c" opacity="1.00" d=" M 0.00 0.00 L 250.00 0.00 L 250.00 250.00 L 0.00 250.00 L 0.00 0.00 M 54.17 46.87 C 59.65 51.73 64.85 56.89 70.12 61.97 C 71.33 62.97 71.67 64.50 71.57 66.01 C 71.63 104.67 71.56 143.34 71.61 182.01 C 71.51 184.05 72.00 186.56 70.15 188.02 C 64.87 193.07 59.73 198.29 54.20 203.07 C 83.13 203.21 112.07 203.12 141.00 203.12 C 156.94 202.60 174.30 198.75 185.44 186.48 C 193.59 177.49 196.50 164.55 194.60 152.74 C 193.15 144.02 187.85 136.19 180.58 131.25 C 169.84 123.58 156.30 121.52 143.42 120.98 C 151.51 119.74 159.77 118.72 167.31 115.31 C 177.47 111.25 186.40 102.94 189.16 92.10 C 192.07 80.52 189.53 66.89 179.98 59.05 C 168.02 49.27 151.88 47.35 136.96 46.86 C 109.37 46.85 81.77 46.84 54.17 46.87 Z" />
<path fill="#1c1c1c" opacity="1.00" d=" M 112.46 51.58 C 120.61 51.36 129.77 50.07 136.77 55.27 C 145.70 61.72 148.13 73.59 148.28 83.98 C 148.40 95.71 145.90 109.27 135.47 116.31 C 128.28 120.54 119.73 119.43 111.77 119.61 C 111.85 98.40 111.79 77.18 111.80 55.97 C 111.78 54.48 112.15 53.03 112.46 51.58 Z" />
<path fill="#1c1c1c" opacity="1.00" d=" M 111.84 124.08 C 121.64 124.20 132.58 122.75 140.91 129.11 C 150.31 136.28 151.81 148.99 152.09 159.98 C 151.96 171.25 150.89 184.01 142.32 192.33 C 134.32 199.75 122.62 199.02 112.52 198.36 C 112.13 196.94 111.74 195.50 111.79 194.02 C 111.85 170.71 111.75 147.39 111.84 124.08 Z" />
</g>
<g id="#ffffffff">
<path fill="#ffffff" opacity="1.00" d=" M 54.17 46.87 C 81.77 46.84 109.37 46.85 136.96 46.86 C 151.88 47.35 168.02 49.27 179.98 59.05 C 189.53 66.89 192.07 80.52 189.16 92.10 C 186.40 102.94 177.47 111.25 167.31 115.31 C 159.77 118.72 151.51 119.74 143.42 120.98 C 156.30 121.52 169.84 123.58 180.58 131.25 C 187.85 136.19 193.15 144.02 194.60 152.74 C 196.50 164.55 193.59 177.49 185.44 186.48 C 174.30 198.75 156.94 202.60 141.00 203.12 C 112.07 203.12 83.13 203.21 54.20 203.07 C 59.73 198.29 64.87 193.07 70.15 188.02 C 72.00 186.56 71.51 184.05 71.61 182.01 C 71.56 143.34 71.63 104.67 71.57 66.01 C 71.67 64.50 71.33 62.97 70.12 61.97 C 64.85 56.89 59.65 51.73 54.17 46.87 M 112.46 51.58 C 112.15 53.03 111.78 54.48 111.80 55.97 C 111.79 77.18 111.85 98.40 111.77 119.61 C 119.73 119.43 128.28 120.54 135.47 116.31 C 145.90 109.27 148.40 95.71 148.28 83.98 C 148.13 73.59 145.70 61.72 136.77 55.27 C 129.77 50.07 120.61 51.36 112.46 51.58 M 111.84 124.08 C 111.75 147.39 111.85 170.71 111.79 194.02 C 111.74 195.50 112.13 196.94 112.52 198.36 C 122.62 199.02 134.32 199.75 142.32 192.33 C 150.89 184.01 151.96 171.25 152.09 159.98 C 151.81 148.99 150.31 136.28 140.91 129.11 C 132.58 122.75 121.64 124.20 111.84 124.08 Z" />
</g>
</svg>

<?xml version="1.0" encoding="utf-8"?>
<!-- Generator: Adobe Illustrator 26.0.3, SVG Export Plug-In . SVG Version: 6.00 Build 0)  -->
<svg version="1.1" id="Layer_1" xmlns="http://www.w3.org/2000/svg" xmlns:xlink="http://www.w3.org/1999/xlink" x="0px" y="0px"
	 viewBox="0 0 250 250" style="enable-background:new 0 0 250 250;" xml:space="preserve">
<style type="text/css">
	.st0{fill:#1C1C1C;}
	.st1{fill:#FFFFFF;}
</style>
<circle class="st0" cx="125" cy="125.5" r="125"/>
<g id="_x23_1c1c1cff">
	<path class="st0" d="M112.5,51.6c8.2-0.2,17.3-1.5,24.3,3.7c8.9,6.5,11.4,18.3,11.5,28.7c0.1,11.7-2.4,25.3-12.8,32.3
		c-7.2,4.2-15.7,3.1-23.7,3.3c0.1-21.2,0-42.4,0-63.6C111.8,54.5,112.2,53,112.5,51.6z"/>
	<path class="st0" d="M111.8,124.1c9.8,0.1,20.7-1.3,29.1,5c9.4,7.2,10.9,19.9,11.2,30.9c-0.1,11.3-1.2,24-9.8,32.4
		c-8,7.4-19.7,6.7-29.8,6c-0.4-1.4-0.8-2.9-0.7-4.3C111.8,170.7,111.8,147.4,111.8,124.1z"/>
</g>
<g id="_x23_ffffffff">
	<path class="st1" d="M54.2,46.9c27.6,0,55.2,0,82.8,0c14.9,0.5,31.1,2.4,43,12.2c9.6,7.8,12.1,21.5,9.2,33
		c-2.8,10.8-11.7,19.2-21.9,23.2c-7.5,3.4-15.8,4.4-23.9,5.7c12.9,0.5,26.4,2.6,37.2,10.3c7.3,4.9,12.6,12.8,14,21.5
		c1.9,11.8-1,24.8-9.2,33.7c-11.1,12.3-28.5,16.1-44.4,16.6c-28.9,0-57.9,0.1-86.8,0c5.5-4.8,10.7-10,16-15.1c1.8-1.5,1.4-4,1.5-6
		c-0.1-38.7,0-77.3,0-116c0.1-1.5-0.2-3-1.4-4C64.8,56.9,59.7,51.7,54.2,46.9 M112.5,51.6c-0.3,1.4-0.7,2.9-0.7,4.4
		c0,21.2,0,42.4,0,63.6c8-0.2,16.5,0.9,23.7-3.3c10.4-7,12.9-20.6,12.8-32.3c-0.1-10.4-2.6-22.3-11.5-28.7
		C129.8,50.1,120.6,51.4,112.5,51.6 M111.8,124.1c-0.1,23.3,0,46.6,0,69.9c-0.1,1.5,0.3,2.9,0.7,4.3c10.1,0.7,21.8,1.4,29.8-6
		c8.6-8.3,9.6-21.1,9.8-32.4c-0.3-11-1.8-23.7-11.2-30.9C132.6,122.8,121.6,124.2,111.8,124.1z"/>
</g>
</svg>
